icons/undergraduate-two-color.svg

<?xml version="1.0" encoding="UTF-8"?><svg xmlns="http://www.w3.org/2000/svg" viewBox="0 0 50 50"><g id="uuid-db07a760-9eb8-42ef-a267-3b0127124c97"><path d="M32.44,26.82h-4.12l-3.35,4.31-3.31-4.31h-.61c-3.87,.19-6.92,3.4-6.92,7.29v15.66h25.24v-15.66c0-3.89-3.04-7.09-6.93-7.29Z" fill="#ffcd00"/><path d="M19.69,8.32v2.08c1.79-.3,3.61-.46,5.42-.46,2.14,0,4.27,.24,6.36,.66,.06,.1,.11,.21,.16,.32,.73,.11,1.45,.23,2.17,.38v-2.86c0-.22,.15-.42,.36-.48l5.32-1.54-13.71-3.54-11.77,3.75,5.3,1.22c.23,.05,.39,.25,.39,.49Z" fill="#ffcd00"/><path d="M39.76,4.28L24.14,.25c-.09-.02-.19-.02-.28,0L10.22,4.6c-.21,.07-.36,.27-.35,.5s.17,.42,.39,.47l2.49,.58s-.02,.06-.02,.09v5.21c-.34,.18-.59,.53-.59,.95,0,.06,0,.11,.01,.17,0,.04-.01,.08-.01,.12v1.79c0,.28,.22,.5,.5,.5h1.18c.28,0,.5-.22,.5-.5v-1.79s0-.07-.02-.11c.01-.06,.02-.12,.02-.18,0-.42-.24-.77-.59-.95V6.36l3.21,.74v-1.03l-4.68-1.08L24.03,1.25l13.71,3.54-4.68,1.36v1.04l6.71-1.95c.22-.06,.36-.26,.36-.49s-.16-.42-.38-.48Z"/><path d="M33.06,5.04c0-.23-.15-.42-.37-.48-2.51-.67-5.09-1.01-7.69-1.01h-.02c-2.59,0-5.17,.34-7.67,1.01-.22,.06-.37,.26-.37,.48v5.27c0,.15,.07,.3,.19,.39,.05,.04,.11,.04,.17,.06-.54,1.12-.86,2.38-.86,3.7,0,4.72,3.84,8.55,8.55,8.55s8.55-3.84,8.55-8.55c0-1.32-.31-2.57-.85-3.69,.06-.02,.11-.04,.16-.08,.12-.09,.19-.24,.19-.39V5.04Zm-8.06,16.98c-4.17,0-7.55-3.39-7.55-7.55,0-1.41,.4-2.73,1.07-3.86,2.17-.44,4.38-.66,6.6-.66,2.14,0,4.27,.24,6.36,.66,.68,1.13,1.08,2.45,1.08,3.86,0,4.17-3.39,7.55-7.55,7.55Zm.12-13.08c-2.4,0-4.82,.24-7.18,.75V5.42c2.3-.58,4.67-.88,7.04-.88h.02c2.38,0,4.75,.3,7.06,.88v4.26c-2.28-.49-4.61-.74-6.94-.75Z"/><path d="M30.72,24.07h-11.45c-4.43,.22-7.9,3.86-7.9,8.29v16.16c0,.28,.22,.5,.5,.5h26.24c.28,0,.5-.22,.5-.5v-16.16c0-4.43-3.47-8.07-7.9-8.29Zm-1.05,1l-4.71,6.06-4.65-6.06h9.36Zm-11.74,8.34c-.28,0-.5,.22-.5,.5v14.11h-5.06v-15.66c0-3.82,2.93-6.96,6.69-7.27l5.39,7.03v15.9h-6.03v-14.11c0-.28-.22-.5-.5-.5Zm19.68,14.61h-4.99v-14.11c0-.28-.22-.5-.5-.5s-.5,.22-.5,.5v14.11h-6.17v-15.9l5.46-7.03c3.77,.32,6.69,3.46,6.69,7.27v15.66Z"/></g><g id="uuid-b70f8352-e800-4388-895b-a3f84363a097"><text transform="translate(.63 54.9)" font-family="Roboto-Regular, Roboto" font-size="6"><tspan x="0" y="0">unde</tspan><tspan x="13.18" y="0" letter-spacing="0em">r</tspan><tspan x="15.16" y="0">g</tspan><tspan x="18.52" y="0" letter-spacing="-.02em">r</tspan><tspan x="20.43" y="0">aduate</tspan></text></g></svg>

<svg xmlns="http://www.w3.org/2000/svg" viewBox="0 0 50 50"><g id="e17bf353-8dbc-40a6-bf3c-e01e797eafd0" data-name="ICONS"><path d="M32.44,26.82H28.32L25,31.13l-3.31-4.31h-.61a7.29,7.29,0,0,0-6.92,7.29V49.77H39.37V34.11A7.29,7.29,0,0,0,32.44,26.82Z" fill="#fdd600"/><path d="M19.69,8.32v2.07a34.1,34.1,0,0,1,5.43-.45,31.64,31.64,0,0,1,6.36.66c.06.1.1.21.16.31.73.11,1.45.23,2.17.39V8.43A.49.49,0,0,1,34.17,8l5.32-1.54L25.78,2.86,14,6.61l5.3,1.22A.5.5,0,0,1,19.69,8.32Z" fill="#fdd600"/><path d="M39.76,4.28,24.14.25a.53.53,0,0,0-.28,0L10.22,4.6a.48.48,0,0,0-.35.49.5.5,0,0,0,.39.47l2.49.57s0,.06,0,.09v5.22a1.08,1.08,0,0,0-.59,1,.88.88,0,0,0,0,.16.5.5,0,0,0,0,.12v1.79a.5.5,0,0,0,.5.5h1.18a.5.5,0,0,0,.5-.5V12.67a.45.45,0,0,0,0-.11.91.91,0,0,0,0-.17,1.06,1.06,0,0,0-.59-1V6.36l3.21.74v-1L12.26,5,24,1.25,37.74,4.79,33.06,6.15v1l6.71-1.94a.5.5,0,0,0,.36-.49A.49.49,0,0,0,39.76,4.28Z" fill="#231f20"/><path d="M33.06,5a.52.52,0,0,0-.37-.49,29.84,29.84,0,0,0-7.69-1h0a30.06,30.06,0,0,0-7.67,1,.52.52,0,0,0-.37.49v5.27a.51.51,0,0,0,.19.39.49.49,0,0,0,.17.06,8.55,8.55,0,1,0,15.41,0,.6.6,0,0,0,.16-.08.51.51,0,0,0,.19-.39V5ZM25,22a7.56,7.56,0,0,1-7.55-7.56,7.46,7.46,0,0,1,1.07-3.86,33.2,33.2,0,0,1,6.6-.66,31.64,31.64,0,0,1,6.36.66,7.46,7.46,0,0,1,1.07,3.86A7.56,7.56,0,0,1,25,22Zm.12-13.08a35.42,35.42,0,0,0-7.18.74V5.42a28.82,28.82,0,0,1,7-.87h0a29,29,0,0,1,7.06.87V9.68A33.74,33.74,0,0,0,25.12,8.94Z" fill="#231f20"/><path d="M30.72,24.07H19.28a8.3,8.3,0,0,0-7.9,8.29V48.52a.5.5,0,0,0,.5.5H38.12a.5.5,0,0,0,.5-.5V32.36A8.3,8.3,0,0,0,30.72,24.07Zm-1,1L25,31.13l-4.66-6.06ZM17.94,33.41a.5.5,0,0,0-.5.5V48H12.38V32.36a7.28,7.28,0,0,1,6.69-7.27l5.4,7V48h-6V33.91A.5.5,0,0,0,17.94,33.41ZM37.62,48h-5V33.91a.5.5,0,0,0-.5-.5.5.5,0,0,0-.5.5V48H25.47V32.12l5.46-7a7.3,7.3,0,0,1,6.69,7.27Z" fill="#231f20"/></g><g id="a2bd0038-8a31-4182-8ad4-8b5b1a36e6c8" data-name="LABELS"><text transform="translate(0.63 54.9)" font-size="6" fill="#231f20" font-family="Roboto-Regular, Roboto">unde<tspan x="13.18" y="0" letter-spacing="-0.01em">r</tspan><tspan x="15.16" y="0">g</tspan><tspan x="18.52" y="0" letter-spacing="-0.02em">r</tspan><tspan x="20.43" y="0">aduate</tspan></text></g></svg>
